Sources/FrostedUI/Resources/Icons.xcassets/sealExclamationFilled20.imageset/seal-exclamation-filled-20.svg

<svg width="20" height="20" viewBox="0 0 20 20" fill="none" xmlns="http://www.w3.org/2000/svg" data-fui-icon="true">
  <g clip-path="url(#clip0_6097_513)">
    <path
      d="M10.0049 -0.00878906C10.9308 -0.00854902 11.7573 0.412286 12.3066 1.07227C12.5947 1.41827 12.9378 1.73248 13.3535 1.90527C13.7703 2.07838 14.2313 2.09557 14.6807 2.05371C15.538 1.97379 16.4235 2.26144 17.0801 2.91797C17.7352 3.57338 18.0214 4.45585 17.9424 5.31152C17.9008 5.76218 17.9181 6.22466 18.0918 6.64258C18.2645 7.05811 18.5785 7.40096 18.9238 7.68945C19.5818 8.23897 20.002 9.06469 20.002 9.98926C20.0017 10.9112 19.5838 11.7338 18.9287 12.2832C18.5823 12.5737 18.2676 12.9186 18.0938 13.3359C17.9188 13.7559 17.901 14.2208 17.9424 14.6738C18.0205 15.5288 17.7347 16.4106 17.0801 17.0654C16.4241 17.7214 15.5401 18.0081 14.6836 17.9287C14.2324 17.8869 13.7691 17.9043 13.3506 18.0781C12.9345 18.251 12.5909 18.5645 12.3018 18.9102C11.7524 19.567 10.9283 19.9861 10.0049 19.9863C9.07737 19.9863 8.24883 19.5639 7.69922 18.9023C7.41363 18.5587 7.07365 18.2469 6.66113 18.0752C6.24669 17.9028 5.78771 17.8855 5.34082 17.9277C4.483 18.0088 3.59758 17.7223 2.94043 17.0654C2.28589 16.4107 1.99838 15.5289 2.07617 14.6738C2.11724 14.2231 2.09883 13.7605 1.9248 13.3428C1.7508 12.9253 1.43552 12.5804 1.08789 12.291C0.427722 11.7415 0.00705282 10.9154 0.00683594 9.98926C0.00683594 9.06064 0.428898 8.23135 1.0918 7.68164C1.43823 7.39435 1.75236 7.05202 1.92578 6.63672C2.09919 6.22132 2.11752 5.76172 2.07617 5.31348C1.99711 4.45715 2.28482 3.57372 2.94043 2.91797C3.59807 2.26039 4.48415 1.97322 5.34277 2.05469C5.78809 2.09699 6.24525 2.07917 6.6582 1.90723C7.07055 1.73553 7.41068 1.42431 7.69531 1.08008C8.2449 0.415368 9.07483 -0.00878906 10.0049 -0.00878906ZM10 12.5C9.44771 12.5 9 12.9477 9 13.5C9 14.0523 9.44771 14.5 10 14.5C10.5523 14.5 11 14.0523 11 13.5C11 12.9477 10.5523 12.5 10 12.5ZM10 5.5C9.58579 5.5 9.25 5.83579 9.25 6.25V10.25C9.25 10.6642 9.58579 11 10 11C10.4142 11 10.75 10.6642 10.75 10.25V6.25C10.75 5.83579 10.4142 5.5 10 5.5Z"
      fill="currentColor"
    />
  </g>
  <defs>
    <clipPath id="clip0_6097_513"><path fill="currentColor" d="M0 0H20V20H0z" /></clipPath>
  </defs>
</svg>

<svg xmlns="http://www.w3.org/2000/svg" width="20" height="20" fill="none" data-fui-icon="true" viewBox="0 0 20 20"><g clip-path="url(#a)"><path fill="currentColor" d="M10.005-.009c.926 0 1.752.421 2.302 1.081.288.346.63.66 1.047.833s.877.19 1.327.149a2.99 2.99 0 0 1 3.261 3.258c-.041.45-.024.913.15 1.33.173.416.486.759.832 1.047a2.99 2.99 0 0 1 .005 4.594c-.347.29-.661.636-.835 1.053-.175.42-.193.885-.152 1.338a2.988 2.988 0 0 1-3.259 3.255c-.45-.042-.914-.025-1.332.15-.417.172-.76.485-1.05.831a2.99 2.99 0 0 1-4.603-.008c-.284-.343-.624-.655-1.037-.827-.414-.172-.873-.19-1.32-.147a2.99 2.99 0 0 1-3.265-3.254c.041-.45.023-.914-.151-1.331-.174-.418-.49-.763-.837-1.052A2.99 2.99 0 0 1 .007 9.989a2.99 2.99 0 0 1 1.085-2.307c.346-.288.66-.63.834-1.045.173-.416.192-.875.15-1.324a2.99 2.99 0 0 1 .864-2.395 2.99 2.99 0 0 1 2.403-.863c.445.042.902.024 1.315-.148s.753-.483 1.037-.827a2.99 2.99 0 0 1 2.31-1.089M10 12.5a1 1 0 1 0 0 2 1 1 0 0 0 0-2m0-7a.75.75 0 0 0-.75.75v4a.75.75 0 0 0 1.5 0v-4A.75.75 0 0 0 10 5.5"/></g><defs><clipPath id="a"><path fill="currentColor" d="M0 0h20v20H0z"/></clipPath></defs></svg>
